X:1
T:Christmas is Coming
M:4/4
L:1/4
K:D
 d2 A3/2 A/2| d d2 d| d d c B| A4| d3/2 D/2 D E| F D F A| B2 A- G|\
 F4| F3/2 G/2 F E| D d A F| G2 A2| D4|

